P2
20 14
255
0 0 0 0 0 0 0 0 0 0 0 0 0 0 0 0 0 0 0 0
0 254 254 254 254 254 254 254 254 254 0 254 254 0 0 0 0 0 0 0
0 254 254 254 254 254 254 254 254 254 0 254 254 0 0 0 0 0 0 0
0 254 254 254 254 254 254 254 254 254 0 254 254 254 254 254 254 254 254 0
0 254 254 254 254 254 254 254 254 254 0 254 254 254 254 254 254 254 254 0
0 254 254 254 254 254 254 254 254 254 0 254 254 254 254 254 254 254 254 0
0 254 254 254 254 254 254 254 254 254 0 254 254 254 254 254 254 254 254 0
0 254 254 254 254 254 254 254 254 254 0 254 254 254 254 254 254 254 254 0
0 254 254 254 254 254 254 254 254 254 0 254 254 254 254 254 254 254 254 0
0 254 254 254 254 254 254 254 254 254 254 254 254 254 254 254 254 254 254 0
0 254 254 254 254 254 254 254 254 254 254 254 254 254 254 254 254 254 254 0
0 254 254 254 254 254 254 254 254 254 254 254 254 254 254 254 254 254 254 0
0 254 254 254 254 254 254 254 254 254 254 254 254 254 254 254 254 254 254 0
0 0 0 0 0 0 0 0 0 0 0 0 0 0 0 0 0 0 0 0
